X: 115
T: Cantantibus organis – Moderato
C: Franciszek Walczyński
%%abc-version 2.0
%%abcx-abcm2ps-target-version 5.9.1 (29 Sep 2008)
%%abc-creator hum2abc beta
%%abcx-conversion-date 2021/10/04 07:38:41
%%abc-edited-by Andrzej Borzym
%%abc-edited-by Krzysztof Stępień
%%abcx-initial-encoding-date 2021-07-27
%%humdrum-veritas 583175753
%%humdrum-veritas-data 3975455039
%%linebreak <none>
%%barnumbers 0
L: 1/8
M: 3/4
N: Derived from pl-kozmzk--mzk-m-346--017_walczynski-franciszek--cantantibus-organis-moderato.krn
Q: "Moderato."
%%staves {1 2}
V: 1 clef=treble
V: 2 clef=bass
K: D
[V:1] F4-FG | 
[V:2] D,A,B,CDE | 
[V:1] ABAFGE | 
[V:2] FGFDEC | 
[V:1] F2GABA | 
[V:2] DCB,A,G,F, | 
[V:1] ^GdcBc2 | 
[V:2] E,2F,^G,A,=G, | 
[V:1] dABA/G/FE | 
[V:2] F,2G,B,A,A,, | 
[V:1] D6 | 
[V:2] D,A,,F,,A,,D,,2 | 
[V:1] FGFCDB, | 
[V:2] z6 | 
[V:1] ^A,4B,D | 
[V:2] F,G,F,C,D,B,, | 
[V:1] CDFEDB, | 
[V:2] ^A,,4B,,D, | 
[V:1] ^A,4B,D | 
[V:2] C,D,F,E,D,B,, | 
[V:1] CD/E/F^GAB | 
[V:2] A,,B,,/C,/D,E,F,^G, | 
[V:1] cdcAB^G | 
[V:2] A,2C2ED | 
[V:1] ABcded | 
[V:2] CB,A,2^G,2 | 
[V:1] cdcAB^G | 
[V:2] A,2C2ED | 
[V:1] ABA=GFE | 
[V:2] CB,A,2A,,2 | 
[V:1] F4-FG | 
[V:2] .D,.A,.B,.C.D.E | 
[V:1] ABAFGE | 
[V:2] .F.G.F.D.E.C | 
[V:1] F2GABA | 
[V:2] DCB,A,G,F, | 
[V:1] ^GdcBc2 | 
[V:2] E,2F,^G,A,=G, | 
[V:1] dABA/=G/FE | 
[V:2] F,2G,B,A,A,, | 
[V:1] D6 | 
[V:2] D,A,,F,,A,,D,,2 | 
[V:1] ABAFA^G & D6- | 
[V:2] =C4B,2 & D,6- | 
[V:1] =GAGEGF & D6 | 
[V:2] _B,4A,2- & D,6 | 
[V:1] FGFDFE & ^D4B,2 | 
[V:2] A,4-A,G, & B,,4E,2 | 
[V:1] D4E2 & A,4-A,G, | 
[V:2] F,G,F,B,,C,2 & A,,6 | 
[V:1] D6- & F,4-F,G,- | 
[V:2] D,E,D,A,,=C,B,, & D,,6- | 
[V:1] D6- & G,A,G,D,E,G, | 
[V:2] _B,,6 & D,,6- | 
[V:1] D6- & [F,A,,][A,=C,][^G,B,,][=G,_B,,][F,A,,][E,G,,] | 
[V:2] x6 & D,,6- | 
[V:1] D6- & [F,6-A,,6] | 
[V:2] A,,=B,,A,,F,,A,,B,, & D,,6- | 
[V:1] D2z2z2 & [F,2A,,2]z2z2 |]  
[V:2] x6 & D,,2z2z2 |]  


